public/svgs/light/5.svg

<svg xmlns="http://www.w3.org/2000/svg" viewBox="0 0 320 512"><!-- Font Awesome Pro 6.0.0-alpha2 by @fontawesome - https://fontawesome.com License - https://fontawesome.com/license (Commercial License) --><path d="M319.999 352C319.999 422.594 262.577 480 191.999 480H94.702C52.045 480 14.311 452.812 0.827 412.344C-1.97 403.969 2.561 394.906 10.936 392.094C19.42 389.25 28.389 393.844 31.17 402.219C40.311 429.594 65.842 448 94.702 448H191.999C244.936 448 287.999 404.938 287.999 352S244.936 256 191.999 256H15.999C11.077 256 6.42 253.719 3.389 249.844S-0.72 240.906 0.483 236.125L48.483 44.125C50.264 37 56.655 32 63.999 32H271.999C280.842 32 287.999 39.156 287.999 48S280.842 64 271.999 64H76.499L36.499 224H191.999C262.577 224 319.999 281.406 319.999 352Z"/></svg>

<svg xmlns="http://www.w3.org/2000/svg" viewBox="0 0 320 512"><!--! Font Awesome Pro 6.5.1 by @fontawesome - https://fontawesome.com License - https://fontawesome.com/license (Commercial License) Copyright 2023 Fonticons, Inc. --><path d="M48.5 44.1C50.3 37 56.7 32 64 32H272c8.8 0 16 7.2 16 16s-7.2 16-16 16H76.5l-40 160H192c70.7 0 128 57.3 128 128s-57.3 128-128 128H84.5c-33.3 0-63.8-18.8-78.7-48.6l-4.1-8.2c-4-7.9-.7-17.5 7.2-21.5s17.5-.7 21.5 7.2l4.1 8.2c9.5 19 28.9 31 50.1 31H192c53 0 96-43 96-96s-43-96-96-96H16c-4.9 0-9.6-2.3-12.6-6.2s-4.1-8.9-2.9-13.7l48-192z"/></svg>
